calendar-filter-outline.svg

<svg fill="currentColor" viewBox="0 0 24 24"><path d="M19 3h-1V1h-2v2H8V1H6v2H4.75c-.44.07-.85.27-1.17.58-.31.32-.51.73-.58 1.17v14.5c.07.44.27.85.58 1.17.32.31.73.51 1.17.58H15v-2H5V9h14v2h2V5c0-1.11-.89-2-2-2m0 4H5V5h14zm-2 14 1.8 1.77c.5.5 1.2.1 1.2-.49V18l2.8-3.4A1 1 0 0 0 22 13h-7c-.8 0-1.3 1-.8 1.6L17 18z"/></svg>

<svg  viewBox="0 0 24 24" fill="currentColor"><path  d="M19 3H18V1H16V3H8V1H6V3H4.75C4.31 3.07 3.9 3.27 3.58 3.58C3.27 3.9 3.07 4.31 3 4.75V19.25C3.07 19.69 3.27 20.1 3.58 20.42C3.9 20.73 4.31 20.93 4.75 21H15V19H5V9H19V11H21V5C21 3.89 20.11 3 19 3M19 7H5V5H19V7M17 21L18.8 22.77C19.3 23.27 20 22.87 20 22.28V18L22.8 14.6C23.3 13.9 22.8 13 22 13H15C14.2 13 13.7 14 14.2 14.6L17 18V21"/></svg>
